assets/1. F-P/Kiss mark/Color/Kiss.Mark-color.svg

<svg width="100%" height="100%" viewBox="0 0 32 32" fill="none" xmlns="http://www.w3.org/2000/svg">
<path fill-rule="evenodd" clip-rule="evenodd" d="M20.3021 2.44212L28.0121 4.16212C28.3609 4.23868 28.5848 4.48348 28.6693 4.76803C28.6905 4.79917 28.7083 4.83389 28.7221 4.87212L28.8921 5.38212C30.8721 11.3221 30.0721 20.0621 25.6521 24.4921L24.5021 25.6421C20.0821 30.0621 11.3321 30.8621 5.40212 28.8721L4.89212 28.7021C4.86621 28.6935 4.84196 28.6829 4.81939 28.6706C4.51744 28.5961 4.25236 28.3677 4.17212 28.0021L2.47212 20.3821C2.25212 19.7521 2.02212 18.1921 2.02212 18.1921C1.85212 15.8521 2.66212 13.4521 4.45212 11.6621C5.80212 10.3021 7.51212 9.51212 9.27212 9.27212C9.51212 7.51212 10.3021 5.80212 11.6621 4.45212C13.4521 2.66212 15.8621 1.85212 18.2021 2.02212C18.2021 2.02212 19.7321 2.25212 20.3021 2.44212ZM7.08549 25.6605C6.87041 26.0966 7.34147 26.552 7.7701 26.3223L8.72212 25.8121C15.9921 21.9221 21.9421 15.9721 25.8321 8.70212L26.3386 7.75699C26.5683 7.32835 26.1129 6.85729 25.6768 7.07237L21.6621 9.05212C16.1921 11.7521 11.7621 16.1821 9.06212 21.6521L7.08549 25.6605Z" fill="url(#paint0_radial_6987_5186)"/>
<path fill-rule="evenodd" clip-rule="evenodd" d="M20.3021 2.44212L28.0121 4.16212C28.3609 4.23868 28.5848 4.48348 28.6693 4.76803C28.6905 4.79917 28.7083 4.83389 28.7221 4.87212L28.8921 5.38212C30.8721 11.3221 30.0721 20.0621 25.6521 24.4921L24.5021 25.6421C20.0821 30.0621 11.3321 30.8621 5.40212 28.8721L4.89212 28.7021C4.86621 28.6935 4.84196 28.6829 4.81939 28.6706C4.51744 28.5961 4.25236 28.3677 4.17212 28.0021L2.47212 20.3821C2.25212 19.7521 2.02212 18.1921 2.02212 18.1921C1.85212 15.8521 2.66212 13.4521 4.45212 11.6621C5.80212 10.3021 7.51212 9.51212 9.27212 9.27212C9.51212 7.51212 10.3021 5.80212 11.6621 4.45212C13.4521 2.66212 15.8621 1.85212 18.2021 2.02212C18.2021 2.02212 19.7321 2.25212 20.3021 2.44212ZM7.08549 25.6605C6.87041 26.0966 7.34147 26.552 7.7701 26.3223L8.72212 25.8121C15.9921 21.9221 21.9421 15.9721 25.8321 8.70212L26.3386 7.75699C26.5683 7.32835 26.1129 6.85729 25.6768 7.07237L21.6621 9.05212C16.1921 11.7521 11.7621 16.1821 9.06212 21.6521L7.08549 25.6605Z" fill="url(#paint1_radial_6987_5186)"/>
<path fill-rule="evenodd" clip-rule="evenodd" d="M20.3021 2.44212L28.0121 4.16212C28.3609 4.23868 28.5848 4.48348 28.6693 4.76803C28.6905 4.79917 28.7083 4.83389 28.7221 4.87212L28.8921 5.38212C30.8721 11.3221 30.0721 20.0621 25.6521 24.4921L24.5021 25.6421C20.0821 30.0621 11.3321 30.8621 5.40212 28.8721L4.89212 28.7021C4.86621 28.6935 4.84196 28.6829 4.81939 28.6706C4.51744 28.5961 4.25236 28.3677 4.17212 28.0021L2.47212 20.3821C2.25212 19.7521 2.02212 18.1921 2.02212 18.1921C1.85212 15.8521 2.66212 13.4521 4.45212 11.6621C5.80212 10.3021 7.51212 9.51212 9.27212 9.27212C9.51212 7.51212 10.3021 5.80212 11.6621 4.45212C13.4521 2.66212 15.8621 1.85212 18.2021 2.02212C18.2021 2.02212 19.7321 2.25212 20.3021 2.44212ZM7.08549 25.6605C6.87041 26.0966 7.34147 26.552 7.7701 26.3223L8.72212 25.8121C15.9921 21.9221 21.9421 15.9721 25.8321 8.70212L26.3386 7.75699C26.5683 7.32835 26.1129 6.85729 25.6768 7.07237L21.6621 9.05212C16.1921 11.7521 11.7621 16.1821 9.06212 21.6521L7.08549 25.6605Z" fill="url(#paint2_radial_6987_5186)"/>
<path fill-rule="evenodd" clip-rule="evenodd" d="M20.3021 2.44212L28.0121 4.16212C28.3609 4.23868 28.5848 4.48348 28.6693 4.76803C28.6905 4.79917 28.7083 4.83389 28.7221 4.87212L28.8921 5.38212C30.8721 11.3221 30.0721 20.0621 25.6521 24.4921L24.5021 25.6421C20.0821 30.0621 11.3321 30.8621 5.40212 28.8721L4.89212 28.7021C4.86621 28.6935 4.84196 28.6829 4.81939 28.6706C4.51744 28.5961 4.25236 28.3677 4.17212 28.0021L2.47212 20.3821C2.25212 19.7521 2.02212 18.1921 2.02212 18.1921C1.85212 15.8521 2.66212 13.4521 4.45212 11.6621C5.80212 10.3021 7.51212 9.51212 9.27212 9.27212C9.51212 7.51212 10.3021 5.80212 11.6621 4.45212C13.4521 2.66212 15.8621 1.85212 18.2021 2.02212C18.2021 2.02212 19.7321 2.25212 20.3021 2.44212ZM7.08549 25.6605C6.87041 26.0966 7.34147 26.552 7.7701 26.3223L8.72212 25.8121C15.9921 21.9221 21.9421 15.9721 25.8321 8.70212L26.3386 7.75699C26.5683 7.32835 26.1129 6.85729 25.6768 7.07237L21.6621 9.05212C16.1921 11.7521 11.7621 16.1821 9.06212 21.6521L7.08549 25.6605Z" fill="url(#paint3_radial_6987_5186)"/>
<path fill-rule="evenodd" clip-rule="evenodd" d="M20.3021 2.44212L28.0121 4.16212C28.3609 4.23868 28.5848 4.48348 28.6693 4.76803C28.6905 4.79917 28.7083 4.83389 28.7221 4.87212L28.8921 5.38212C30.8721 11.3221 30.0721 20.0621 25.6521 24.4921L24.5021 25.6421C20.0821 30.0621 11.3321 30.8621 5.40212 28.8721L4.89212 28.7021C4.86621 28.6935 4.84196 28.6829 4.81939 28.6706C4.51744 28.5961 4.25236 28.3677 4.17212 28.0021L2.47212 20.3821C2.25212 19.7521 2.02212 18.1921 2.02212 18.1921C1.85212 15.8521 2.66212 13.4521 4.45212 11.6621C5.80212 10.3021 7.51212 9.51212 9.27212 9.27212C9.51212 7.51212 10.3021 5.80212 11.6621 4.45212C13.4521 2.66212 15.8621 1.85212 18.2021 2.02212C18.2021 2.02212 19.7321 2.25212 20.3021 2.44212ZM7.08549 25.6605C6.87041 26.0966 7.34147 26.552 7.7701 26.3223L8.72212 25.8121C15.9921 21.9221 21.9421 15.9721 25.8321 8.70212L26.3386 7.75699C26.5683 7.32835 26.1129 6.85729 25.6768 7.07237L21.6621 9.05212C16.1921 11.7521 11.7621 16.1821 9.06212 21.6521L7.08549 25.6605Z" fill="url(#paint4_radial_6987_5186)"/>
<g filter="url(#filter0_f_6987_5186)">
<path d="M18.8438 4.3125L22.3438 4.875L26.2617 5.49614C27.0027 5.61362 27.6208 6.13494 27.767 6.87079C28.083 8.46029 28.3153 10.9929 27.7812 13.625" stroke="#FFACB1" stroke-width="0.5" stroke-linecap="round"/>
</g>
<g filter="url(#filter1_f_6987_5186)">
<path d="M5.90626 27.5938L7.00001 26.5938C6.43751 26.1562 6.06251 25.2188 6.06251 24.0312C5.38751 25.8062 5.62501 27.2604 5.90626 27.5938Z" fill="#FF6775"/>
</g>
<g filter="url(#filter2_f_6987_5186)">
<path d="M9.09375 27.125C10.3125 27.5312 15.1562 28.0252 17.8125 27.369" stroke="url(#paint5_linear_6987_5186)" stroke-linecap="round"/>
</g>
<g filter="url(#filter3_f_6987_5186)">
<path d="M19.9688 7.625C17.9063 8.25 10.6563 11.625 7.34375 20.25" stroke="url(#paint6_linear_6987_5186)" stroke-linecap="round"/>
</g>
<defs>
<filter id="filter0_f_6987_5186" x="16.8437" y="2.31244" width="13.2556" height="13.3126" filterUnits="userSpaceOnUse" color-interpolation-filters="sRGB">
<feFlood flood-opacity="0" result="BackgroundImageFix"/>
<feBlend mode="normal" in="SourceGraphic" in2="BackgroundImageFix" result="shape"/>
<feGaussianBlur stdDeviation="0.875" result="effect1_foregroundBlur_6987_5186"/>
</filter>
<filter id="filter1_f_6987_5186" x="4.62515" y="23.0312" width="3.37486" height="5.5625" filterUnits="userSpaceOnUse" color-interpolation-filters="sRGB">
<feFlood flood-opacity="0" result="BackgroundImageFix"/>
<feBlend mode="normal" in="SourceGraphic" in2="BackgroundImageFix" result="shape"/>
<feGaussianBlur stdDeviation="0.5" result="effect1_foregroundBlur_6987_5186"/>
</filter>
<filter id="filter2_f_6987_5186" x="6.59361" y="24.6249" width="13.719" height="5.5636" filterUnits="userSpaceOnUse" color-interpolation-filters="sRGB">
<feFlood flood-opacity="0" result="BackgroundImageFix"/>
<feBlend mode="normal" in="SourceGraphic" in2="BackgroundImageFix" result="shape"/>
<feGaussianBlur stdDeviation="1" result="effect1_foregroundBlur_6987_5186"/>
</filter>
<filter id="filter3_f_6987_5186" x="3.84361" y="4.12488" width="19.6253" height="19.6252" filterUnits="userSpaceOnUse" color-interpolation-filters="sRGB">
<feFlood flood-opacity="0" result="BackgroundImageFix"/>
<feBlend mode="normal" in="SourceGraphic" in2="BackgroundImageFix" result="shape"/>
<feGaussianBlur stdDeviation="1.5" result="effect1_foregroundBlur_6987_5186"/>
</filter>
<radialGradient id="paint0_radial_6987_5186" cx="0" cy="0" r="1" gradientUnits="userSpaceOnUse" gradientTransform="translate(-8.50562 25.1011) rotate(-30.8346) scale(38.4717 38.1438)">
<stop stop-color="#ED1C26"/>
<stop offset="0.491883" stop-color="#ED1452"/>
<stop offset="1" stop-color="#EC098C"/>
</radialGradient>
<radialGradient id="paint1_radial_6987_5186" cx="0" cy="0" r="1" gradientUnits="userSpaceOnUse" gradientTransform="translate(21.4687 14.1563) rotate(35.6764) scale(1.50033 7.62061)">
<stop offset="0.3125" stop-color="#AF1B6B"/>
<stop offset="1" stop-color="#AF1B6B" stop-opacity="0"/>
</radialGradient>
<radialGradient id="paint2_radial_6987_5186" cx="0" cy="0" r="1" gradientUnits="userSpaceOnUse" gradientTransform="translate(31.0937 16.375) rotate(172.97) scale(32.6832 51.1677)">
<stop offset="0.786458" stop-color="#FE5B00" stop-opacity="0"/>
<stop offset="1" stop-color="#FF6F1E"/>
</radialGradient>
<radialGradient id="paint3_radial_6987_5186" cx="0" cy="0" r="1" gradientUnits="userSpaceOnUse" gradientTransform="translate(23.0938 24) rotate(-87.8416) scale(24.8927 27.5544)">
<stop offset="0.873951" stop-color="#AF1B6B" stop-opacity="0"/>
<stop offset="1" stop-color="#AF1B6B"/>
</radialGradient>
<radialGradient id="paint4_radial_6987_5186" cx="0" cy="0" r="1" gradientUnits="userSpaceOnUse" gradientTransform="translate(16.9063 11.75) rotate(75.196) scale(18.1008 30.8976)">
<stop offset="0.873951" stop-color="#AF1B6B" stop-opacity="0"/>
<stop offset="1" stop-color="#AF1B6B"/>
</radialGradient>
<linearGradient id="paint5_linear_6987_5186" x1="10.9375" y1="27.125" x2="16.625" y2="27.4067" gradientUnits="userSpaceOnUse">
<stop stop-color="#FF6775"/>
<stop offset="1" stop-color="#FF6775" stop-opacity="0"/>
</linearGradient>
<linearGradient id="paint6_linear_6987_5186" x1="18.5313" y1="5.71258" x2="10.1102" y2="13.9568" gradientUnits="userSpaceOnUse">
<stop stop-color="#FF67A7" stop-opacity="0"/>
<stop offset="1" stop-color="#FF67A7"/>
</linearGradient>
</defs>
</svg>

<svg width="100%" height="100%" viewBox="0 0 32 32" xmlns="http://www.w3.org/2000/svg"><path fill="url(#a)" fill-rule="evenodd" d="m20.302 2.442 7.71 1.72a.86.86 0 0 1 .657.606.5.5 0 0 1 .053.104l.17.51c1.98 5.94 1.18 14.68-3.24 19.11l-1.15 1.15c-4.42 4.42-13.17 5.22-19.1 3.23l-.51-.17a.4.4 0 0 1-.073-.031.86.86 0 0 1-.647-.669l-1.7-7.62c-.22-.63-.45-2.19-.45-2.19-.17-2.34.64-4.74 2.43-6.53a8.36 8.36 0 0 1 4.82-2.39 8.36 8.36 0 0 1 2.39-4.82c1.79-1.79 4.2-2.6 6.54-2.43 0 0 1.53.23 2.1.42M7.085 25.661a.5.5 0 0 0 .685.661l.952-.51a41.73 41.73 0 0 0 17.11-17.11l.507-.945a.5.5 0 0 0-.662-.685l-4.015 1.98c-5.47 2.7-9.9 7.13-12.6 12.6z" clip-rule="evenodd"/><path fill="url(#b)" fill-rule="evenodd" d="m20.302 2.442 7.71 1.72a.86.86 0 0 1 .657.606.5.5 0 0 1 .053.104l.17.51c1.98 5.94 1.18 14.68-3.24 19.11l-1.15 1.15c-4.42 4.42-13.17 5.22-19.1 3.23l-.51-.17a.4.4 0 0 1-.073-.031.86.86 0 0 1-.647-.669l-1.7-7.62c-.22-.63-.45-2.19-.45-2.19-.17-2.34.64-4.74 2.43-6.53a8.36 8.36 0 0 1 4.82-2.39 8.36 8.36 0 0 1 2.39-4.82c1.79-1.79 4.2-2.6 6.54-2.43 0 0 1.53.23 2.1.42M7.085 25.661a.5.5 0 0 0 .685.661l.952-.51a41.73 41.73 0 0 0 17.11-17.11l.507-.945a.5.5 0 0 0-.662-.685l-4.015 1.98c-5.47 2.7-9.9 7.13-12.6 12.6z" clip-rule="evenodd"/><path fill="url(#c)" fill-rule="evenodd" d="m20.302 2.442 7.71 1.72a.86.86 0 0 1 .657.606.5.5 0 0 1 .053.104l.17.51c1.98 5.94 1.18 14.68-3.24 19.11l-1.15 1.15c-4.42 4.42-13.17 5.22-19.1 3.23l-.51-.17a.4.4 0 0 1-.073-.031.86.86 0 0 1-.647-.669l-1.7-7.62c-.22-.63-.45-2.19-.45-2.19-.17-2.34.64-4.74 2.43-6.53a8.36 8.36 0 0 1 4.82-2.39 8.36 8.36 0 0 1 2.39-4.82c1.79-1.79 4.2-2.6 6.54-2.43 0 0 1.53.23 2.1.42M7.085 25.661a.5.5 0 0 0 .685.661l.952-.51a41.73 41.73 0 0 0 17.11-17.11l.507-.945a.5.5 0 0 0-.662-.685l-4.015 1.98c-5.47 2.7-9.9 7.13-12.6 12.6z" clip-rule="evenodd"/><path fill="url(#d)" fill-rule="evenodd" d="m20.302 2.442 7.71 1.72a.86.86 0 0 1 .657.606.5.5 0 0 1 .053.104l.17.51c1.98 5.94 1.18 14.68-3.24 19.11l-1.15 1.15c-4.42 4.42-13.17 5.22-19.1 3.23l-.51-.17a.4.4 0 0 1-.073-.031.86.86 0 0 1-.647-.669l-1.7-7.62c-.22-.63-.45-2.19-.45-2.19-.17-2.34.64-4.74 2.43-6.53a8.36 8.36 0 0 1 4.82-2.39 8.36 8.36 0 0 1 2.39-4.82c1.79-1.79 4.2-2.6 6.54-2.43 0 0 1.53.23 2.1.42M7.085 25.661a.5.5 0 0 0 .685.661l.952-.51a41.73 41.73 0 0 0 17.11-17.11l.507-.945a.5.5 0 0 0-.662-.685l-4.015 1.98c-5.47 2.7-9.9 7.13-12.6 12.6z" clip-rule="evenodd"/><path fill="url(#e)" fill-rule="evenodd" d="m20.302 2.442 7.71 1.72a.86.86 0 0 1 .657.606.5.5 0 0 1 .053.104l.17.51c1.98 5.94 1.18 14.68-3.24 19.11l-1.15 1.15c-4.42 4.42-13.17 5.22-19.1 3.23l-.51-.17a.4.4 0 0 1-.073-.031.86.86 0 0 1-.647-.669l-1.7-7.62c-.22-.63-.45-2.19-.45-2.19-.17-2.34.64-4.74 2.43-6.53a8.36 8.36 0 0 1 4.82-2.39 8.36 8.36 0 0 1 2.39-4.82c1.79-1.79 4.2-2.6 6.54-2.43 0 0 1.53.23 2.1.42M7.085 25.661a.5.5 0 0 0 .685.661l.952-.51a41.73 41.73 0 0 0 17.11-17.11l.507-.945a.5.5 0 0 0-.662-.685l-4.015 1.98c-5.47 2.7-9.9 7.13-12.6 12.6z" clip-rule="evenodd"/><g filter="url(#f)"><path stroke="#FFACB1" stroke-linecap="round" stroke-width=".5" d="m18.844 4.313 3.5.562 3.918.621c.74.118 1.359.639 1.505 1.375.316 1.59.548 4.122.014 6.754"/></g><g filter="url(#g)"><path fill="#FF6775" d="m5.906 27.594 1.094-1c-.562-.438-.937-1.375-.937-2.563-.675 1.775-.438 3.23-.157 3.563"/></g><g filter="url(#h)"><path stroke="url(#i)" stroke-linecap="round" d="M9.094 27.125c1.219.406 6.062.9 8.719.244"/></g><g filter="url(#j)"><path stroke="url(#k)" stroke-linecap="round" d="M19.969 7.625c-2.063.625-9.313 4-12.625 12.625"/></g><defs><radialGradient id="a" cx="0" cy="0" r="1" gradientTransform="rotate(-30.835 41.258 27.972)scale(38.4717 38.1438)" gradientUnits="userSpaceOnUse"><stop stop-color="#ED1C26"/><stop offset=".492" stop-color="#ED1452"/><stop offset="1" stop-color="#EC098C"/></radialGradient><radialGradient id="b" cx="0" cy="0" r="1" gradientTransform="matrix(1.21875 .875 -4.4444 6.1904 21.469 14.156)" gradientUnits="userSpaceOnUse"><stop offset=".313" stop-color="#AF1B6B"/><stop offset="1" stop-color="#AF1B6B" stop-opacity="0"/></radialGradient><radialGradient id="c" cx="0" cy="0" r="1" gradientTransform="matrix(-32.4375 4.00006 -6.26236 -50.78303 31.094 16.375)" gradientUnits="userSpaceOnUse"><stop offset=".786" stop-color="#FE5B00" stop-opacity="0"/><stop offset="1" stop-color="#FF6F1E"/></radialGradient><radialGradient id="d" cx="0" cy="0" r="1" gradientTransform="rotate(-87.842 24.008 .01)scale(24.8927 27.5544)" gradientUnits="userSpaceOnUse"><stop offset=".874" stop-color="#AF1B6B" stop-opacity="0"/><stop offset="1" stop-color="#AF1B6B"/></radialGradient><radialGradient id="e" cx="0" cy="0" r="1" gradientTransform="matrix(4.625 17.49995 -29.87197 7.89475 16.906 11.75)" gradientUnits="userSpaceOnUse"><stop offset=".874" stop-color="#AF1B6B" stop-opacity="0"/><stop offset="1" stop-color="#AF1B6B"/></radialGradient><filter id="f" width="13.256" height="13.313" x="16.844" y="2.312" color-interpolation-filters="sRGB" filterUnits="userSpaceOnUse"><feFlood flood-opacity="0" result="BackgroundImageFix"/><feBlend in="SourceGraphic" in2="BackgroundImageFix" result="shape"/><feGaussianBlur result="effect1_foregroundBlur_6987_5186" stdDeviation=".875"/></filter><filter id="g" width="3.375" height="5.563" x="4.625" y="23.031" color-interpolation-filters="sRGB" filterUnits="userSpaceOnUse"><feFlood flood-opacity="0" result="BackgroundImageFix"/><feBlend in="SourceGraphic" in2="BackgroundImageFix" result="shape"/><feGaussianBlur result="effect1_foregroundBlur_6987_5186" stdDeviation=".5"/></filter><filter id="h" width="13.719" height="5.564" x="6.594" y="24.625" color-interpolation-filters="sRGB" filterUnits="userSpaceOnUse"><feFlood flood-opacity="0" result="BackgroundImageFix"/><feBlend in="SourceGraphic" in2="BackgroundImageFix" result="shape"/><feGaussianBlur result="effect1_foregroundBlur_6987_5186" stdDeviation="1"/></filter><filter id="j" width="19.625" height="19.625" x="3.844" y="4.125" color-interpolation-filters="sRGB" filterUnits="userSpaceOnUse"><feFlood flood-opacity="0" result="BackgroundImageFix"/><feBlend in="SourceGraphic" in2="BackgroundImageFix" result="shape"/><feGaussianBlur result="effect1_foregroundBlur_6987_5186" stdDeviation="1.5"/></filter><linearGradient id="i" x1="10.938" x2="16.625" y1="27.125" y2="27.407" gradientUnits="userSpaceOnUse"><stop stop-color="#FF6775"/><stop offset="1" stop-color="#FF6775" stop-opacity="0"/></linearGradient><linearGradient id="k" x1="18.531" x2="10.11" y1="5.713" y2="13.957" gradientUnits="userSpaceOnUse"><stop stop-color="#FF67A7" stop-opacity="0"/><stop offset="1" stop-color="#FF67A7"/></linearGradient></defs></svg>
